X:71
T:Roscoe
R:Reel
M:4/4
L:1/8
C: Traditional
K:G
|: DF | "G"G2B2 A B3 | "C"c3d c2 (B2 | "G"B)cBA G F3 | "D"D3 E D2 DF |
| "G"G2B2 A B3 | "C"c3 d c2 (B2 | "D"B)dBB A F3 | "G"G3A G2 :|
|: e(g || "G"g2) gg edBA | dB A2G2 (g2 | g2) g2 e g3 | "D"a3b a2 (b2 |
|"G"b)aba gedB | "C"c3 d c2 A(B | "D"B)dBB A F3 | "G"G3A G2 :|

